X:2998
T:V\"astbodansen
T:Hopp, lilla flicka
C:anon.
O:Sweden
N:After Gottfrid Berg
R:Danslek
Z:Transcribed by Frank Nordberg - http://www.musicaviva.com
F:http://abc.musicaviva.com/tunes/sweden/vastbodansen.abc
M:3/4
L:1/8
K:Db
d2 A>B A>G|F>E F2 D2|d2 A>B A>G|F>E F2 D2|
w:Hopp, lil-la flic-ka, vill du ha mej H\"ar \"a' gull-ring-en som du ga' mej!
G2 G>F E2|F2 F>E D2|G2 G>F E2|F2 F>E D2|
w:\"Ost-bo \"a' du, v\"ast-bo \"a' jag! Tr\"a-sko har du, l\"ar-sko har ja'!
D7/2 E/ F>G|A2 d2 A2|A2 B2 c2|d2 f2 A2|
w:J\"an-ka, j\"an-ka b\"ast du vill, mej ska du h\"o-ra till,
D7/2 E/ F>G|A2 d2 A2|A2 B2 c2|d6|]
w:J\"an-ka, j\"an-ka b\"ast du vill, mej ska du ha.
W:
W:Hopp, lilla flicka, vill du ha mej
W:H\"ar \"a' gullringen som du ga' mej!
W:\"Ostbo \"a' du, v\"astbo \"a' jag!
W:Tr\"asko har du, l\"arsko har ja'!
W:J\"anka, j\"anka b\"ast du vill,
W:mej ska du h\"ora till,
W:J\"anka, j\"anka b\"ast du vill,
W:mej ska du ha.
W:
W:
W:  From Musica Viva - http://www.musicaviva.com
W:  the Internet center for free sheet music downloads.
